X: 15297
T: Girls Of Banbridge, The
R: jig
M: 6/8
K: Dmajor
A2d dcB|ABA FED|F3 DEF|E3 EFG|
Azd dcB|ABA FED|fef g2f|edc d3:|
AFA dfg|agf efg|f3 e2d|cdc BcB|
A3 dzf|agf efg|f3 g3|edc d3:|

